src/actions/16/draw-eraser.svg

<svg viewBox="0 0 16 16" xmlns="http://www.w3.org/2000/svg">
 <defs>
  <style type="text/css">.ColorScheme-Text {
        color:#2e3440;
      }</style>
 </defs>
 <path class="ColorScheme-Text" d="m11 2-6 6 3 3 6-6-3-3zm-7.5 7.5-1.5 1.5 3 3 1.5-1.5-3-3z" fill="currentColor"/>
</svg>

<svg xmlns="http://www.w3.org/2000/svg" viewBox="0 0 16 16">
  <defs id="defs3051">
    <style type="text/css" id="current-color-scheme">
      .ColorScheme-Text {
        color:#2e3440;
      }
      </style>
  </defs>
 <path style="fill:currentColor;fill-opacity:1;stroke:none" 
     d="M 11 2 L 5 8 L 8 11 L 14 5 L 11 2 z M 3.5 9.5 L 2 11 L 5 14 L 6.5 12.5 L 3.5 9.5 z "
     class="ColorScheme-Text"
     />
</svg>
